assets/images/payment-method-icons/afterpay.svg

<svg fill="none" height="24" viewBox="0 0 39 24" width="39" xmlns="http://www.w3.org/2000/svg" xmlns:xlink="http://www.w3.org/1999/xlink"><clipPath id="a"><rect height="24" rx="2" width="38" x=".650024" y=".007813"/></clipPath><clipPath id="b"><path d="m.650024.007813h38v24h-38z"/></clipPath><g clip-path="url(#a)"><rect fill="#fff" height="24" rx="2" width="38" x=".650024" y=".007813"/><g clip-path="url(#b)"><path d="m35.65.0078125h-31.99998c-.79565 0-1.55871.3160705-2.12132.8786795-.562605.562608-.878676 1.325668-.878676 2.121318v17.99999c0 .7957.316071 1.5587.878676 2.1213.56261.5626 1.32567.8787 2.12132.8787h31.99998c.7957 0 1.5587-.3161 2.1213-.8787.5627-.5626.8787-1.3256.8787-2.1213v-17.99999c0-.79565-.316-1.55871-.8787-2.121318-.5626-.562609-1.3256-.8786795-2.1213-.8786795z" fill="#b2fce4"/><g fill="#000"><path d="m36.77 10.0077-1.06-.61003-1.06-.64c-.1627-.09281-.347-.14125-.5344-.14047s-.3713.05074-.5333.14491c-.162.09416-.2964.22921-.3898.39164s-.1425.34655-.1425.53392v.13c0 .03742.0091.07428.0265.10739s.0427.06146.0735.08264l.5.28c.0235.0139.0495.0229.0766.0265.027.0035.0545.0014.0807-.0061s.0507-.0202.0718-.0375.0384-.0387.0509-.0629c.009-.0328.009-.0673 0-.1v-.32003c-.0013-.02758.0028-.05516.0121-.08116.0094-.02599.0237-.04989.0423-.07033.0186-.02043.041-.037.066-.04876.025-.01175.052-.01847.0796-.01975h.12l1 .57003 1 .56c.0487.0309.0832.0796.0963.1357s.0037.1151-.0263.1643l-.07.07-1 .56-1 .57c-.0236.0145-.0498.0243-.0772.0287-.0274.0043-.0554.0032-.0824-.0033-.0269-.0065-.0523-.0183-.0747-.0347-.0224-.0163-.0413-.037-.0557-.0607-.0101-.0394-.0101-.0807 0-.12v-.16c.0001-.1874-.049-.3715-.1424-.5339-.0934-.1625-.2279-.2975-.3899-.3917s-.3458-.1441-.5332-.1449-.3717.0477-.5345.1405l-1.08.62-1.06.61c-.2447.1423-.4238.3751-.4986.6482-.0748.273-.0394.5646.0986.8118.0921.169.231.3079.4.4l1.06.61 1.08.61c.1628.0928.3471.1412.5345.1404.1874-.0007.3712-.0507.5332-.1449.162-.0941.2965-.2292.3899-.3916s.1425-.3466.1424-.5339v-.13c.0001-.0374-.009-.0743-.0264-.1074-.0175-.0331-.0427-.0615-.0736-.0826l-.5-.29c-.0234-.014-.0494-.023-.0765-.0265-.027-.0035-.0545-.0015-.0807.006-.0263.0075-.0507.0203-.0718.0376-.0211.0172-.0384.0386-.051.0629-.0089.0361-.0089.0738 0 .11v.32c.0014.0276-.0027.0551-.0121.0811-.0093.026-.0236.0499-.0422.0704-.0186.0204-.041.037-.066.0487-.025.0118-.0521.0185-.0797.0198-.0395.009-.0805.009-.12 0l-1-.57-1-.56c-.0504-.024-.0899-.0663-.1103-.1183s-.0203-.1098.0003-.1617l.07-.07 1-.56 1-.57c.0236-.0146.0499-.0243.0773-.0287s.0554-.0033.0823.0032c.027.0065.0524.0183.0748.0347s.0413.037.0556.0608c.0102.0393.0102.0806 0 .12v.16c0 .1873.0491.3715.1425.5339s.2278.2975.3898.3916c.162.0942.3459.1442.5333.1449.1874.0008.3717-.0476.5344-.1404l1.08-.62 1.06-.61c.1196-.0736.2233-.1702.3053-.2841.0819-.114.1404-.2431.172-.3799.0316-.1367.0358-.2784.0122-.4168-.0235-.1383-.0744-.2706-.1495-.3892-.073-.1516-.183-.2823-.32-.38z"/><path d="m29.79 10.1875-2.49 5.14h-1l.93-1.92-1.46-3.22h1.06l.94 2.15 1-2.15z"/><path d="m4.90001 12.0082c-.00978-.1954-.07663-.3836-.19229-.5413-.11565-.1577-.27503-.2781-.4584-.3462s-.38268-.0809-.57325-.0368c-.19058.044-.36405.143-.49894.2846-.1349.1417-.22529.3198-.26.5123-.0347.1925-.01219.3909.06474.5707.07694.1799.20493.3332.36812.441.16319.1079.35443.1655.55002.1657.26522 0 .51957-.1054.70711-.2929s.29289-.4419.29289-.7071zm0 1.83v-.48c-.1411.1705-.31843.3074-.51908.4009-.20065.0934-.41959.1409-.64092.1391-.23508-.0052-.46684-.0567-.68203-.1514-.21519-.0948-.40959-.2311-.57211-.401-.16251-.17-.28995-.3703-.37503-.5895s-.12614-.453-.12083-.6881v-.06c-.00937-.2391.02848-.4776.11139-.702.0829-.2244.20924-.4303.37177-.6058.16254-.1756.35809-.3173.57547-.4172.21737-.0999.45231-.156.69137-.165.21739-.0015.43239.0453.62952.137.19713.0916.37148.2259.51048.393v-.46h.89v3.65z"/><path d="m10.17 13.0075c-.31999 0-.39999-.12-.39999-.42v-1.58h.56999v-.79h-.56999v-.92h-.92v.89h-1.2v-.37c0-.3.12-.42.44-.42h.2v-.71h-.43c-.76 0-1.12.25-1.12 1v.49h-.51v.83h.51v2.86h.91v-2.86h1.2v1.79c0 .75.28 1.07 1 1.07h.49999v-.86z"/><path d="m13.47 11.6782c-.0298-.2165-.1399-.4138-.3085-.5527-.1686-.139-.3833-.2094-.6015-.1973-.2187-.0101-.4335.0608-.6033.1992-.1697.1384-.2825.3345-.3167.5508zm-1.82.57c.0155.236.1223.4568.2977.6155.1755.1587.4059.2428.6423.2345.1717.002.3409-.0401.4915-.1225.1507-.0823.2776-.202.3685-.3475h.94c-.1163.3855-.3591.7206-.6894.9511-.3303.2304-.7286.3428-1.1306.3189-.476.0329-.9456-.1244-1.3057-.4376-.36-.3131-.581-.7564-.6143-1.2324v-.22c0-.5013.1991-.982.5536-1.3365.3544-.3544.8352-.5535 1.3364-.5535.5013 0 .982.1991 1.3365.5535.3544.3545.5535.8352.5535 1.3365.01.0763.01.1536 0 .23z"/><path d="m20.31 12.0082c-.0066-.263-.1165-.5127-.306-.6952-.1894-.1825-.4431-.283-.7062-.2797-.263.0033-.5141.1101-.699.2972-.1848.1872-.2885.4397-.2885.7027 0 .2631.1037.5155.2885.7027.1849.1872.436.2939.699.2972.2631.0033.5168-.0972.7062-.2796.1895-.1825.2994-.4323.306-.6953zm-2.89 3.32v-5.14h.89v.47c.1411-.1705.3184-.3074.5191-.4008.2007-.0935.4196-.141.6409-.1392.2351.0039.4671.0541.6828.1477s.4108.2287.5742.3977c.1635.169.292.3686.3783.5873s.1287.4522.1247.6873v.07c.0094.2391-.0285.4776-.1114.702s-.2092.4303-.3717.6058c-.1626.1756-.3581.3173-.5755.4172s-.4523.156-.6914.165c-.2095.004-.4174-.0377-.6091-.1224-.1917-.0846-.3627-.2101-.5009-.3676v1.92z"/><path d="m24.47 12.0082c-.0099-.1932-.0756-.3793-.1892-.5359-.1136-.1565-.2701-.2768-.4506-.3462s-.3773-.085-.5665-.0448-.3627.1343-.4995.2711c-.1367.1368-.2309.3103-.2711.4994-.0401.1892-.0246.386.0448.5666.0694.1805.1897.337.3463.4506.1565.1135.3427.1793.5358.1892h.05c.2652 0 .5196-.1054.7071-.2929.1876-.1875.2929-.4419.2929-.7071zm0 1.83v-.48c-.1386.1708-.314.3081-.5132.4016-.1991.0935-.4168.1408-.6368.1384-.2351-.0039-.4671-.0541-.6827-.1477-.2157-.0936-.4109-.2287-.5743-.3977s-.292-.3686-.3783-.5873-.1287-.4522-.1247-.6873v-.07c-.0094-.2391.0285-.4776.1114-.702s.2092-.4303.3718-.6058c.1625-.1756.3581-.3173.5754-.4172.2174-.0999.4524-.156.6914-.165.216-.0014.4295.0455.625.1372s.368.2259.505.3928v-.46h.9v3.65z"/><path d="m15.8 10.5475c.0832-.134.1997-.2441.3382-.3194.1385-.0754.2942-.1135.4518-.1106.1344-.0035.2678.0239.39.08v.94c-.1949-.1201-.4212-.1793-.65-.17-.1573.0338-.2962.1256-.3888.2572-.0927.1316-.1324.2932-.1112.4528v2.16h-.93v-3.65h.9z"/></g></g></g></svg>

<svg
        width="39"
        height="24"
        viewBox="0 0 39 24"
        fill="none"
        xmlns="http://www.w3.org/2000/svg"
>
    <g clip-path="url(#clip0_2237_211611)">
        <rect
                x="0.650024"
                y="0.0078125"
                width="38"
                height="24"
                rx="2"
                fill="white"
        />
        <g clip-path="url(#clip1_2237_211611)">
            <path
                    d="M35.65 0.0078125H3.65002C2.85437 0.0078125 2.09131 0.323883 1.5287 0.886492C0.966095 1.4491 0.650024 2.21216 0.650024 3.00781L0.650024 21.0078C0.650024 21.8035 0.966095 22.5665 1.5287 23.1291C2.09131 23.6917 2.85437 24.0078 3.65002 24.0078H35.65C36.4457 24.0078 37.2087 23.6917 37.7713 23.1291C38.334 22.5665 38.65 21.8035 38.65 21.0078V3.00781C38.65 2.21216 38.334 1.4491 37.7713 0.886492C37.2087 0.323883 36.4457 0.0078125 35.65 0.0078125Z"
                    fill="#B2FCE4"
            />
            <path
                    d="M36.77 10.0077L35.71 9.39767L34.65 8.75767C34.4873 8.66486 34.303 8.61642 34.1156 8.6172C33.9282 8.61798 33.7443 8.66794 33.5823 8.76211C33.4203 8.85627 33.2859 8.99132 33.1925 9.15375C33.0991 9.31618 33.05 9.5003 33.05 9.68767V9.81767C33.05 9.85509 33.0591 9.89195 33.0765 9.92506C33.0939 9.95817 33.1192 9.98652 33.15 10.0077L33.65 10.2877C33.6735 10.3016 33.6995 10.3106 33.7266 10.3142C33.7536 10.3177 33.7811 10.3156 33.8073 10.3081C33.8335 10.3006 33.858 10.2879 33.8791 10.2706C33.9002 10.2533 33.9175 10.2319 33.93 10.2077C33.939 10.1749 33.939 10.1404 33.93 10.1077V9.78767C33.9287 9.76009 33.9328 9.73251 33.9421 9.70651C33.9515 9.68052 33.9658 9.65662 33.9844 9.63618C34.003 9.61575 34.0254 9.59918 34.0504 9.58742C34.0754 9.57567 34.1024 9.56895 34.13 9.56767H34.25L35.25 10.1377L36.25 10.6977C36.2987 10.7286 36.3332 10.7773 36.3463 10.8334C36.3594 10.8895 36.35 10.9485 36.32 10.9977L36.25 11.0677L35.25 11.6277L34.25 12.1977C34.2264 12.2122 34.2002 12.222 34.1728 12.2264C34.1454 12.2307 34.1174 12.2296 34.0904 12.2231C34.0635 12.2166 34.0381 12.2048 34.0157 12.1884C33.9933 12.1721 33.9744 12.1514 33.96 12.1277C33.9499 12.0883 33.9499 12.047 33.96 12.0077V11.8477C33.9601 11.6603 33.911 11.4762 33.8176 11.3138C33.7242 11.1513 33.5897 11.0163 33.4277 10.9221C33.2657 10.8279 33.0819 10.778 32.8945 10.7772C32.7071 10.7764 32.5228 10.8249 32.36 10.9177L31.28 11.5377L30.22 12.1477C29.9753 12.29 29.7962 12.5228 29.7214 12.7959C29.6466 13.0689 29.682 13.3605 29.82 13.6077C29.9121 13.7767 30.051 13.9156 30.22 14.0077L31.28 14.6177L32.36 15.2277C32.5228 15.3205 32.7071 15.3689 32.8945 15.3681C33.0819 15.3674 33.2657 15.3174 33.4277 15.2232C33.5897 15.1291 33.7242 14.994 33.8176 14.8316C33.911 14.6692 33.9601 14.485 33.96 14.2977V14.1677C33.9601 14.1303 33.951 14.0934 33.9336 14.0603C33.9161 14.0272 33.8909 13.9988 33.86 13.9777L33.36 13.6877C33.3366 13.6737 33.3106 13.6647 33.2835 13.6612C33.2565 13.6577 33.229 13.6597 33.2028 13.6672C33.1765 13.6747 33.1521 13.6875 33.131 13.7048C33.1099 13.722 33.0926 13.7434 33.08 13.7677C33.0711 13.8038 33.0711 13.8415 33.08 13.8777V14.1977C33.0814 14.2253 33.0773 14.2528 33.0679 14.2788C33.0586 14.3048 33.0443 14.3287 33.0257 14.3492C33.0071 14.3696 32.9847 14.3862 32.9597 14.3979C32.9347 14.4097 32.9076 14.4164 32.88 14.4177C32.8405 14.4267 32.7995 14.4267 32.76 14.4177L31.76 13.8477L30.76 13.2877C30.7096 13.2637 30.6701 13.2214 30.6497 13.1694C30.6293 13.1174 30.6294 13.0596 30.65 13.0077L30.72 12.9377L31.72 12.3777L32.72 11.8077C32.7436 11.7931 32.7699 11.7834 32.7973 11.779C32.8247 11.7746 32.8527 11.7757 32.8796 11.7822C32.9066 11.7887 32.932 11.8005 32.9544 11.8169C32.9768 11.8333 32.9957 11.8539 33.01 11.8777C33.0202 11.917 33.0202 11.9583 33.01 11.9977V12.1577C33.01 12.345 33.0591 12.5292 33.1525 12.6916C33.2459 12.854 33.3803 12.9891 33.5423 13.0832C33.7043 13.1774 33.8882 13.2274 34.0756 13.2281C34.263 13.2289 34.4473 13.1805 34.61 13.0877L35.69 12.4677L36.75 11.8577C36.8696 11.7841 36.9733 11.6875 37.0553 11.5736C37.1372 11.4596 37.1957 11.3305 37.2273 11.1937C37.2589 11.057 37.2631 10.9153 37.2395 10.7769C37.216 10.6386 37.1651 10.5063 37.09 10.3877C37.017 10.2361 36.907 10.1054 36.77 10.0077Z"
                    fill="black"
            />
            <path
                    d="M29.79 10.1875L27.3 15.3275H26.3L27.23 13.4075L25.77 10.1875H26.83L27.77 12.3375L28.77 10.1875H29.79Z"
                    fill="black"
            />
            <path
                    d="M4.90001 12.0082C4.89023 11.8128 4.82338 11.6246 4.70772 11.4669C4.59207 11.3092 4.43269 11.1888 4.24932 11.1207C4.06595 11.0526 3.86664 11.0398 3.67607 11.0839C3.48549 11.1279 3.31202 11.2269 3.17713 11.3685C3.04223 11.5102 2.95184 11.6883 2.91713 11.8808C2.88243 12.0733 2.90494 12.2717 2.98187 12.4515C3.05881 12.6314 3.1868 12.7847 3.34999 12.8925C3.51318 13.0004 3.70442 13.058 3.90001 13.0582C4.16523 13.0582 4.41958 12.9528 4.60712 12.7653C4.79466 12.5778 4.90001 12.3234 4.90001 12.0582V12.0082ZM4.90001 13.8382V13.3582C4.75891 13.5287 4.58158 13.6656 4.38093 13.7591C4.18028 13.8525 3.96134 13.9 3.74001 13.8982C3.50493 13.893 3.27317 13.8415 3.05798 13.7468C2.84279 13.652 2.64839 13.5157 2.48587 13.3458C2.32336 13.1758 2.19592 12.9755 2.11084 12.7563C2.02576 12.5371 1.9847 12.3033 1.99001 12.0682V12.0082C1.98064 11.7691 2.01849 11.5306 2.1014 11.3062C2.1843 11.0818 2.31064 10.8759 2.47317 10.7004C2.63571 10.5248 2.83126 10.3831 3.04864 10.2832C3.26601 10.1833 3.50095 10.1272 3.74001 10.1182C3.9574 10.1167 4.1724 10.1635 4.36953 10.2552C4.56666 10.3468 4.74101 10.4811 4.88001 10.6482V10.1882H5.77001V13.8382H4.90001Z"
                    fill="black"
            />
            <path
                    d="M10.17 13.0075C9.85001 13.0075 9.77001 12.8875 9.77001 12.5875V11.0075H10.34V10.2175H9.77001V9.2975H8.85001V10.1875H7.65001V9.8175C7.65001 9.5175 7.77001 9.3975 8.09001 9.3975H8.29001V8.6875H7.86001C7.10001 8.6875 6.74001 8.9375 6.74001 9.6875V10.1775H6.23001V11.0075H6.74001V13.8675H7.65001V11.0075H8.85001V12.7975C8.85001 13.5475 9.13001 13.8675 9.85001 13.8675H10.35V13.0075H10.17Z"
                    fill="black"
            />
            <path
                    d="M13.47 11.6782C13.4402 11.4617 13.3301 11.2644 13.1615 11.1255C12.9929 10.9865 12.7782 10.9161 12.56 10.9282C12.3413 10.9181 12.1265 10.989 11.9567 11.1274C11.787 11.2658 11.6742 11.4619 11.64 11.6782H13.47ZM11.65 12.2482C11.6655 12.4842 11.7723 12.705 11.9477 12.8637C12.1232 13.0224 12.3536 13.1065 12.59 13.0982C12.7617 13.1002 12.9309 13.0581 13.0815 12.9757C13.2322 12.8934 13.3591 12.7737 13.45 12.6282H14.39C14.2737 13.0137 14.0309 13.3488 13.7006 13.5793C13.3703 13.8097 12.972 13.9221 12.57 13.8982C12.094 13.9311 11.6244 13.7738 11.2643 13.4606C10.9043 13.1475 10.6833 12.7042 10.65 12.2282V12.0082C10.65 11.5069 10.8491 11.0262 11.2036 10.6717C11.558 10.3173 12.0388 10.1182 12.54 10.1182C13.0413 10.1182 13.522 10.3173 13.8765 10.6717C14.2309 11.0262 14.43 11.5069 14.43 12.0082C14.44 12.0845 14.44 12.1618 14.43 12.2382L11.65 12.2482Z"
                    fill="black"
            />
            <path
                    d="M20.31 12.0082C20.3034 11.7452 20.1935 11.4955 20.004 11.313C19.8146 11.1305 19.5609 11.03 19.2978 11.0333C19.0348 11.0366 18.7837 11.1434 18.5988 11.3305C18.414 11.5177 18.3103 11.7702 18.3103 12.0332C18.3103 12.2963 18.414 12.5487 18.5988 12.7359C18.7837 12.9231 19.0348 13.0298 19.2978 13.0331C19.5609 13.0364 19.8146 12.9359 20.004 12.7535C20.1935 12.571 20.3034 12.3212 20.31 12.0582V12.0082ZM17.42 15.3282V10.1882H18.31V10.6582C18.4511 10.4877 18.6284 10.3508 18.8291 10.2574C19.0298 10.1639 19.2487 10.1164 19.47 10.1182C19.7051 10.1221 19.9371 10.1723 20.1528 10.2659C20.3685 10.3595 20.5636 10.4946 20.727 10.6636C20.8905 10.8326 21.019 11.0322 21.1053 11.2509C21.1916 11.4696 21.234 11.7031 21.23 11.9382V12.0082C21.2394 12.2473 21.2015 12.4858 21.1186 12.7102C21.0357 12.9346 20.9094 13.1405 20.7469 13.316C20.5843 13.4916 20.3888 13.6333 20.1714 13.7332C19.954 13.8331 19.7191 13.8892 19.48 13.8982C19.2705 13.9022 19.0626 13.8605 18.8709 13.7758C18.6792 13.6912 18.5082 13.5657 18.37 13.4082V15.3282H17.42Z"
                    fill="black"
            />
            <path
                    d="M24.47 12.0082C24.4601 11.815 24.3944 11.6289 24.2808 11.4723C24.1672 11.3158 24.0107 11.1955 23.8302 11.1261C23.6497 11.0567 23.4529 11.0411 23.2637 11.0813C23.0745 11.1215 22.901 11.2156 22.7642 11.3524C22.6275 11.4892 22.5333 11.6627 22.4931 11.8518C22.453 12.041 22.4685 12.2378 22.5379 12.4184C22.6073 12.5989 22.7276 12.7554 22.8842 12.869C23.0407 12.9825 23.2269 13.0483 23.42 13.0582H23.47C23.7352 13.0582 23.9896 12.9528 24.1771 12.7653C24.3647 12.5778 24.47 12.3234 24.47 12.0582V12.0082ZM24.47 13.8382V13.3582C24.3314 13.529 24.156 13.6663 23.9568 13.7598C23.7577 13.8533 23.54 13.9006 23.32 13.8982C23.0849 13.8943 22.8529 13.8441 22.6373 13.7505C22.4216 13.6569 22.2264 13.5218 22.063 13.3528C21.8996 13.1838 21.771 12.9842 21.6847 12.7655C21.5984 12.5468 21.556 12.3133 21.56 12.0782V12.0082C21.5506 11.7691 21.5885 11.5306 21.6714 11.3062C21.7543 11.0818 21.8806 10.8759 22.0432 10.7004C22.2057 10.5248 22.4013 10.3831 22.6186 10.2832C22.836 10.1833 23.071 10.1272 23.31 10.1182C23.526 10.1168 23.7395 10.1637 23.935 10.2554C24.1305 10.3471 24.303 10.4813 24.44 10.6482V10.1882H25.34V13.8382H24.47Z"
                    fill="black"
            />
            <path
                    d="M15.8 10.5475C15.8832 10.4135 15.9997 10.3034 16.1382 10.2281C16.2767 10.1527 16.4324 10.1146 16.59 10.1175C16.7244 10.114 16.8578 10.1414 16.98 10.1975V11.1375C16.7851 11.0174 16.5588 10.9582 16.33 10.9675C16.1727 11.0013 16.0338 11.0931 15.9412 11.2247C15.8485 11.3563 15.8088 11.5179 15.83 11.6775V13.8375H14.9V10.1875H15.8V10.5475Z"
                    fill="black"
            />
        </g>
    </g>
    <defs>
        <clipPath id="clip0_2237_211611">
            <rect
                    x="0.650024"
                    y="0.0078125"
                    width="38"
                    height="24"
                    rx="2"
                    fill="white"
            />
        </clipPath>
        <clipPath id="clip1_2237_211611">
            <rect
                    width="38"
                    height="24"
                    fill="white"
                    transform="translate(0.650024 0.0078125)"
            />
        </clipPath>
    </defs>
</svg>
